X: 7
T: The Stack Of Barley
R: hornpipe
M: 4/4
L: 1/8
K: Amaj
|: a>g |f2 f>e c2 e>c | B2 B>^A (3Bcd c>B | A2 A>B (3cBA c>e | (3faf B2 B2 c>e |
f>af>e c>fe>c | B>A (3FGA B>dc>B | A>GA>B c>eB>d | (3cec A2 A2 :|
|: A>B |c>Ac>e (3aba g>a | b>ag>a f2 (3efg | a2 g>a f>ec>e | f>BB>^A B2 g>=a |
b>ag>b a2 g>f | e>cB>A B>dc>B | A2 A>B c>eB>d | (3cec A2 A2 :|


Tune 2224	Setting 15592

